2. Evclid/img/ficher-2-320.svg

<svg fill="none" height="49" viewBox="0 0 64 49" width="64" xmlns="http://www.w3.org/2000/svg"><circle cx="21.5" cy="27.5" fill="#f90" r="21" stroke="#f90"/><g clip-rule="evenodd" fill="#000" fill-rule="evenodd"><path d="m42.4093 15.7002c-2.9927 0-5.4188 2.4261-5.4188 5.4188 0 2.9928 2.4261 5.4189 5.4188 5.4189 2.9928 0 5.4189-2.4261 5.4189-5.4189 0-2.9927-2.4261-5.4188-5.4189-5.4188zm-6.0962 5.4188c0-3.3668 2.7294-6.0962 6.0962-6.0962 3.3669 0 6.0962 2.7294 6.0962 6.0962 0 3.3669-2.7293 6.0962-6.0962 6.0962-3.3668 0-6.0962-2.7293-6.0962-6.0962z"/><path d="m42.5.678947c-.9304 0-1.8226.369583-2.4805 1.027443-.6578.65785-1.0274 1.5501-1.0274 2.48045v.32703.00135c-.0027.68522-.2058 1.35469-.5841 1.92599-.3784.57131-.9155 1.01951-1.5453 1.28945-.0423.01811-.0878.02744-.1338.02744h-.0842c-.6245.2602-1.3114.33475-1.9781.21387-.6908-.12525-1.3282-.45457-1.83-.94548l-.0027-.00262-.1154-.11543c-.3258-.32615-.7128-.58503-1.1387-.76156-.4258-.17653-.8823-.26739-1.3433-.26739s-.9175.09086-1.3433.26739c-.4259.17653-.8127.43527-1.1385.76143l-.0003.00026c-.3261.32579-.5849.71267-.7614 1.13852-.1765.42586-.2674.88233-.2674 1.34332s.0909.91749.2674 1.34329c.1765.4259.4353.8128.7614 1.1385l.1182.1182c.4909.5019.8202 1.1393.9455 1.8301.1246.6873.0415 1.396-.2385 2.0357-.2441.6574-.6793 1.2269-1.2499 1.6349-.5734.4102-1.257.6383-1.9618.6548l-.0079.0001h-.1732c-.9303 0-1.8226.3696-2.4804 1.0274-.6579.6579-1.0275 1.5501-1.0275 2.4805 0 .9303.3696 1.8226 1.0275 2.4804.6578.6579 1.5501 1.0275 2.4804 1.0275h.3284c.6852.0027 1.3547.2058 1.926.5841.5708.378 1.0187.9146 1.2887 1.5437.2829.6418.3672 1.3536.2421 2.0438-.1253.6908-.4546 1.3282-.9455 1.83l-.0026.0027-.1155.1154c-.3261.3258-.585.7128-.7615 1.1387-.1765.4258-.2674.8823-.2674 1.3433s.0909.9175.2674 1.3433c.1765.4259.4353.8127.7614 1.1385l.0003.0003c.3258.3261.7126.5849 1.1385.7614.4258.1765.8823.2674 1.3433.2674s.9175-.0909 1.3433-.2674c.4259-.1765.8128-.4353 1.1385-.7614l.1182-.1182c.5019-.4909 1.1393-.8202 1.8301-.9455.6873-.1246 1.396-.0415 2.0357.2385.6574.2441 1.2269.6793 1.6349 1.2498.4102.5735.6383 1.2571.6548 1.9619l.0001.0079v.1732c0 .9303.3696 1.8226 1.0274 2.4804.6579.6579 1.5501 1.0275 2.4805 1.0275.9303 0 1.8226-.3696 2.4804-1.0275.6579-.6578 1.0275-1.5501 1.0275-2.4804v-.3271-.0013c.0027-.6852.2058-1.3547.5841-1.926.378-.5708.9145-1.0187 1.5435-1.2887.6419-.2829 1.3537-.3672 2.044-.2421.6908.1253 1.3282.4546 1.83.9455l.0027.0026.1154.1155c.3258.3261.7128.585 1.1387.7615.4258.1765.8823.2674 1.3433.2674s.9174-.0909 1.3433-.2674c.4258-.1765.8127-.4353 1.1385-.7614l.0003-.0003c.3261-.3258.5849-.7126.7614-1.1385.1765-.4258.2674-.8823.2674-1.3433s-.0909-.9175-.2674-1.3433c-.1765-.4259-.4353-.8128-.7614-1.1385l-.1182-.1182c-.4909-.5019-.8202-1.1393-.9455-1.8301-.1251-.6902-.0408-1.4021.2421-2.044.27-.629.7179-1.1655 1.2887-1.5435.5713-.3783 1.2407-.5814 1.926-.5841h.0013.1732c.9303 0 1.8226-.3696 2.4804-1.0274.6579-.6579 1.0275-1.5501 1.0275-2.4805s-.3696-1.8226-1.0275-2.4805c-.6578-.6578-1.5501-1.0274-2.4804-1.0274h-.3271-.0013c-.6852-.0027-1.3547-.2058-1.926-.5841-.5713-.3784-1.0195-.9155-1.2895-1.5453-.0181-.0423-.0274-.0878-.0274-.1338v-.0842c-.2602-.6245-.3348-1.3114-.2139-1.9781.1253-.6908.4546-1.3282.9455-1.83l.0026-.0027.1155-.1154c.3261-.3258.585-.7128.7615-1.1387.1765-.4258.2674-.8823.2674-1.34329s-.0909-.91746-.2674-1.34331-.4353-.81273-.7614-1.13852l-.0003-.00027c-.3258-.32615-.7126-.58489-1.1385-.76142-.4258-.17653-.8823-.2674-1.3433-.2674s-.9175.09087-1.3433.2674c-.4259.17653-.8128.43527-1.1386.76142l-.1181.1182c-.5019.49091-1.1393.82021-1.8301.94546-.6902.12514-1.402.04085-2.0438-.24202-.6291-.27-1.1657-.71793-1.5437-1.28873-.3783-.5713-.5814-1.24077-.5841-1.92599v-.00136-.17313c0-.93035-.3696-1.8226-1.0274-2.48045-.6579-.65786-1.5501-1.027443-2.4805-1.027443zm-2.9605.547353c.7851-.785187 1.8501-1.2263 2.9605-1.2263s2.1754.441113 2.9605 1.2263c.7852.78518 1.2263 1.85012 1.2263 2.96054v.17178.00063c.0024.55259.1662 1.09246.4713 1.55319.3052.46091.7386.8225 1.2467 1.04027l.0033.00144c.5182.22868 1.093.29692 1.6503.19587.5567-.10094 1.0704-.36617 1.4751-.76153.0004-.00042.0009-.00083.0013-.00125l.1126-.11265c0-.00004 0 .00004 0 0 .3888-.38922.8507-.69812 1.3589-.9088.5083-.21069 1.0531-.31915 1.6033-.31915s1.095.10846 1.6033.31915c.5082.21066.9698.51938 1.3586.90853.3893.38885.6981.85061.9088 1.35888.2107.50828.3192 1.0531.3192 1.60331 0 .55022-.1085 1.09499-.3192 1.60329s-.5195.9701-.9088 1.3589l-.1126.1126c-.0005.0005-.0009.0009-.0013.0014-.3954.4046-.6606.9184-.7615 1.475-.1011.5573-.0328 1.1321.1958 1.6503.0191.0432.0289.0899.0289.1371v.0821c.2201.4814.5708.892 1.0129 1.1847.4607.3051 1.0006.4689 1.5532.4713h.3263c1.1104 0 2.1753.4411 2.9605 1.2263.7852.7851 1.2263 1.8501 1.2263 2.9605s-.4411 2.1754-1.2263 2.9605c-.7852.7852-1.8501 1.2263-2.9605 1.2263h-.1718c-.0002 0-.0004 0-.0007 0-.5525.0024-1.0924.1662-1.5531.4713-.4609.3052-.8225.7386-1.0403 1.2467l-.0015.0033c-.2286.5182-.2969 1.093-.1958 1.6503.1009.5566.3661 1.0703.7614 1.475.0005.0005.0009.0009.0013.0014l.1127.1126c.3892.3888.6981.8507.9088 1.3589.2107.5083.3192 1.0531.3192 1.6033s-.1085 1.095-.3192 1.6033c-.2107.5082-.5194.9699-.9087 1.3587-.3888.3893-.8505.698-1.3587.9087-.5083.2107-1.0531.3192-1.6033.3192s-1.0951-.1085-1.6033-.3192-.97-.5194-1.3588-.9087c0 0 .0001.0001 0 0l-.1127-.1127c-.0005-.0005-.001-.0009-.0014-.0014-.4047-.3953-.9184-.6605-1.4751-.7614-.5572-.1011-1.132-.0328-1.6502.1958l-.0033.0015c-.5081.2178-.9415.5794-1.2467 1.0403-.3051.4607-.4689 1.0006-.4713 1.5532v.0006.3257c0 1.1104-.4411 2.1753-1.2263 2.9605s-1.8501 1.2263-2.9605 1.2263-2.1754-.4411-2.9606-1.2263c-.7851-.7852-1.2262-1.8501-1.2262-2.9605v-.1691c-.0141-.5673-.1981-1.1173-.5282-1.5789-.3309-.4626-.7933-.815-1.3271-1.0113-.0036-.0014-.0072-.0027-.0108-.0042-.0031-.0012-.0061-.0025-.0091-.0039-.5182-.2286-1.093-.2969-1.6503-.1958-.5566.1009-1.0704.3661-1.4751.7615-.0004.0004-.0008.0008-.0013.0013l-.1126.1126c-.3888.3893-.8506.6981-1.3589.9088s-1.0531.3192-1.6033.3192-1.095-.1085-1.6033-.3192-.97-.5195-1.3589-.9088c-.3891-.3888-.6979-.8504-.9085-1.3586-.2107-.5083-.3192-1.0531-.3192-1.6033s.1085-1.095.3192-1.6033c.2107-.5082.5194-.97.9087-1.3588 0 0-.0001.0001 0 0l.1127-.1127c.0005-.0005.0009-.0009.0013-.0013.3954-.4047.6606-.9185.7615-1.4752.1011-.5572.0328-1.132-.1958-1.6502l-.0015-.0033c-.2178-.5081-.5794-.9415-1.0403-1.2467-.4607-.3051-1.0006-.4689-1.5532-.4713-.0002 0-.0004 0-.0006 0h-.3257c-1.1104 0-2.1753-.4411-2.9605-1.2263-.7852-.7851-1.2263-1.8501-1.2263-2.9605s.4411-2.1754 1.2263-2.9606c.7852-.7851 1.8501-1.2262 2.9605-1.2262h.1691c.5673-.0141 1.1173-.1981 1.5789-.5282.4626-.3309.815-.7933 1.0113-1.3271.0025-.0067.0052-.0134.0081-.0199.2286-.5182.2969-1.093.1958-1.6503-.1009-.5567-.3661-1.0704-.7615-1.4751l-.1139-.1139c-.3893-.3888-.6981-.8506-.9088-1.3589s-.3192-1.05308-.3192-1.60329c0-.55022.1085-1.09504.3192-1.60331.2107-.50828.5195-.97004.9088-1.35888.3888-.38915.8504-.69788 1.3586-.90853.5083-.2107 1.0531-.31915 1.6033-.31915s1.095.10845 1.6033.31915c.5082.21067.97.51944 1.3588.90866 0 .00004-.0001-.00004 0 0l.1141.11408c.4046.39534.9184.66055 1.475.76148.5573.10105 1.1321.03283 1.6503-.19585.0432-.01906.0899-.0289.1371-.0289h.0821c.4814-.22008.892-.57078 1.1847-1.01283.3051-.46073.4689-1.00059.4713-1.55318v-.32631c0-1.11042.4411-2.17536 1.2263-2.96054z"/></g></svg>

<svg width="64" height="49" viewBox="0 0 64 49" fill="none" xmlns="http://www.w3.org/2000/svg">
<circle cx="21.5" cy="27.5" r="21" fill="#FF9900" stroke="#FF9900"/>
<path fill-rule="evenodd" clip-rule="evenodd" d="M42.4093 15.7002C39.4166 15.7002 36.9905 18.1263 36.9905 21.119C36.9905 24.1118 39.4166 26.5379 42.4093 26.5379C45.4021 26.5379 47.8282 24.1118 47.8282 21.119C47.8282 18.1263 45.4021 15.7002 42.4093 15.7002ZM36.3131 21.119C36.3131 17.7522 39.0425 15.0228 42.4093 15.0228C45.7762 15.0228 48.5055 17.7522 48.5055 21.119C48.5055 24.4859 45.7762 27.2152 42.4093 27.2152C39.0425 27.2152 36.3131 24.4859 36.3131 21.119Z" fill="black"/>
<path fill-rule="evenodd" clip-rule="evenodd" d="M42.5 0.678947C41.5696 0.678947 40.6774 1.04853 40.0195 1.70639C39.3617 2.36424 38.9921 3.25649 38.9921 4.18684V4.51387L38.9921 4.51522C38.9894 5.20044 38.7863 5.86991 38.408 6.44121C38.0296 7.01252 37.4925 7.46072 36.8627 7.73066C36.8204 7.74877 36.7749 7.7581 36.7289 7.7581H36.6447C36.0202 8.0183 35.3333 8.09285 34.6666 7.97197C33.9758 7.84672 33.3384 7.5174 32.8366 7.02649L32.8339 7.02387L32.7185 6.90844C32.3927 6.58229 32.0057 6.32341 31.5798 6.14688C31.154 5.97035 30.6975 5.87949 30.2365 5.87949C29.7755 5.87949 29.319 5.97035 28.8932 6.14688C28.4673 6.32341 28.0805 6.58215 27.7547 6.90831L27.7544 6.90857C27.4283 7.23436 27.1695 7.62124 26.993 8.04709C26.8165 8.47295 26.7256 8.92942 26.7256 9.39041C26.7256 9.8514 26.8165 10.3079 26.993 10.7337C27.1695 11.1596 27.4283 11.5465 27.7544 11.8722L27.8726 11.9904C28.3635 12.4923 28.6928 13.1297 28.8181 13.8205C28.9427 14.5078 28.8596 15.2165 28.5796 15.8562C28.3355 16.5136 27.9003 17.0831 27.3297 17.4911C26.7563 17.9013 26.0727 18.1294 25.3679 18.1459L25.36 18.146H25.1868C24.2565 18.146 23.3642 18.5156 22.7064 19.1734C22.0485 19.8313 21.6789 20.7235 21.6789 21.6539C21.6789 22.5842 22.0485 23.4765 22.7064 24.1343C23.3642 24.7922 24.2565 25.1618 25.1868 25.1618H25.5152C26.2004 25.1645 26.8699 25.3676 27.4412 25.7459C28.012 26.1239 28.4599 26.6605 28.7299 27.2896C29.0128 27.9314 29.0971 28.6432 28.972 29.3334C28.8467 30.0242 28.5174 30.6616 28.0265 31.1634L28.0239 31.1661L27.9084 31.2815C27.5823 31.6073 27.3234 31.9943 27.1469 32.4202C26.9704 32.846 26.8795 33.3025 26.8795 33.7635C26.8795 34.2245 26.9704 34.681 27.1469 35.1068C27.3234 35.5327 27.5822 35.9195 27.9083 36.2453L27.9086 36.2456C28.2344 36.5717 28.6212 36.8305 29.0471 37.007C29.4729 37.1835 29.9294 37.2744 30.3904 37.2744C30.8514 37.2744 31.3079 37.1835 31.7337 37.007C32.1596 36.8305 32.5465 36.5717 32.8722 36.2456L32.9904 36.1274C33.4923 35.6365 34.1297 35.3072 34.8205 35.1819C35.5078 35.0573 36.2165 35.1404 36.8562 35.4204C37.5136 35.6645 38.0831 36.0997 38.4911 36.6702C38.9013 37.2437 39.1294 37.9273 39.1459 38.6321L39.146 38.64V38.8132C39.146 39.7435 39.5156 40.6358 40.1734 41.2936C40.8313 41.9515 41.7235 42.3211 42.6539 42.3211C43.5842 42.3211 44.4765 41.9515 45.1343 41.2936C45.7922 40.6358 46.1618 39.7435 46.1618 38.8132V38.4861L46.1618 38.4848C46.1645 37.7996 46.3676 37.1301 46.7459 36.5588C47.1239 35.988 47.6604 35.5401 48.2894 35.2701C48.9313 34.9872 49.6431 34.9029 50.3334 35.028C51.0242 35.1533 51.6616 35.4826 52.1634 35.9735L52.1661 35.9761L52.2815 36.0916C52.6073 36.4177 52.9943 36.6766 53.4202 36.8531C53.846 37.0296 54.3025 37.1205 54.7635 37.1205C55.2245 37.1205 55.6809 37.0296 56.1068 36.8531C56.5326 36.6766 56.9195 36.4178 57.2453 36.0917L57.2456 36.0914C57.5717 35.7656 57.8305 35.3788 58.007 34.9529C58.1835 34.5271 58.2744 34.0706 58.2744 33.6096C58.2744 33.1486 58.1835 32.6921 58.007 32.2663C57.8305 31.8404 57.5717 31.4535 57.2456 31.1278L57.1274 31.0096C56.6365 30.5077 56.3072 29.8703 56.1819 29.1795C56.0568 28.4893 56.1411 27.7774 56.424 27.1355C56.694 26.5065 57.1419 25.97 57.7127 25.592C58.284 25.2137 58.9534 25.0106 59.6387 25.0079L59.64 25.0079L59.8132 25.0079C60.7435 25.0079 61.6358 24.6383 62.2936 23.9805C62.9515 23.3226 63.3211 22.4304 63.3211 21.5C63.3211 20.5696 62.9515 19.6774 62.2936 19.0195C61.6358 18.3617 60.7435 17.9921 59.8132 17.9921H59.4861L59.4848 17.9921C58.7996 17.9894 58.1301 17.7863 57.5588 17.408C56.9875 17.0296 56.5393 16.4925 56.2693 15.8627C56.2512 15.8204 56.2419 15.7749 56.2419 15.7289V15.6447C55.9817 15.0202 55.9071 14.3333 56.028 13.6666C56.1533 12.9758 56.4826 12.3384 56.9735 11.8366L56.9761 11.8339L57.0916 11.7185C57.4177 11.3927 57.6766 11.0057 57.8531 10.5798C58.0296 10.154 58.1205 9.6975 58.1205 9.23651C58.1205 8.77552 58.0296 8.31905 57.8531 7.8932C57.6766 7.46735 57.4178 7.08047 57.0917 6.75468L57.0914 6.75441C56.7656 6.42826 56.3788 6.16952 55.9529 5.99299C55.5271 5.81646 55.0706 5.72559 54.6096 5.72559C54.1486 5.72559 53.6921 5.81646 53.2663 5.99299C52.8404 6.16952 52.4535 6.42826 52.1277 6.75441L52.0096 6.87261C51.5077 7.36352 50.8703 7.69282 50.1795 7.81807C49.4893 7.94321 48.7775 7.85892 48.1357 7.57605C47.5066 7.30605 46.97 6.85812 46.592 6.28732C46.2137 5.71602 46.0106 5.04655 46.0079 4.36133L46.0079 4.35997V4.18684C46.0079 3.25649 45.6383 2.36424 44.9805 1.70639C44.3226 1.04853 43.4304 0.678947 42.5 0.678947ZM39.5395 1.2263C40.3246 0.441113 41.3896 0 42.5 0C43.6104 0 44.6754 0.441113 45.4605 1.2263C46.2457 2.01148 46.6868 3.07642 46.6868 4.18684L46.6868 4.35862C46.6868 4.35883 46.6868 4.35904 46.6868 4.35925C46.6892 4.91184 46.853 5.45171 47.1581 5.91244C47.4633 6.37335 47.8967 6.73494 48.4048 6.95271L48.4081 6.95415C48.9263 7.18283 49.5011 7.25107 50.0584 7.15002C50.6151 7.04908 51.1288 6.78385 51.5335 6.38849C51.5339 6.38807 51.5344 6.38766 51.5348 6.38724L51.6474 6.27459C51.6474 6.27455 51.6474 6.27463 51.6474 6.27459C52.0362 5.88537 52.4981 5.57647 53.0063 5.36579C53.5146 5.1551 54.0594 5.04664 54.6096 5.04664C55.1598 5.04664 55.7046 5.1551 56.2129 5.36579C56.7211 5.57645 57.1827 5.88517 57.5715 6.27432C57.9608 6.66317 58.2696 7.12493 58.4803 7.6332C58.691 8.14148 58.7995 8.6863 58.7995 9.23651C58.7995 9.78673 58.691 10.3315 58.4803 10.8398C58.2696 11.3481 57.9608 11.8099 57.5715 12.1987L57.4589 12.3113C57.4584 12.3118 57.458 12.3122 57.4576 12.3127C57.0622 12.7173 56.797 13.2311 56.6961 13.7877C56.595 14.345 56.6633 14.9198 56.8919 15.438C56.911 15.4812 56.9208 15.5279 56.9208 15.5751V15.6572C57.1409 16.1386 57.4916 16.5492 57.9337 16.8419C58.3944 17.147 58.9343 17.3108 59.4869 17.3132H59.8132C60.9236 17.3132 61.9885 17.7543 62.7737 18.5395C63.5589 19.3246 64 20.3896 64 21.5C64 22.6104 63.5589 23.6754 62.7737 24.4605C61.9885 25.2457 60.9236 25.6868 59.8132 25.6868L59.6414 25.6868C59.6412 25.6868 59.641 25.6868 59.6407 25.6868C59.0882 25.6892 58.5483 25.853 58.0876 26.1581C57.6267 26.4633 57.2651 26.8967 57.0473 27.4048L57.0458 27.4081C56.8172 27.9263 56.7489 28.5011 56.85 29.0584C56.9509 29.615 57.2161 30.1287 57.6114 30.5334C57.6119 30.5339 57.6123 30.5343 57.6127 30.5348L57.7254 30.6474C57.7255 30.6474 57.7254 30.6474 57.7254 30.6474C58.1146 31.0362 58.4235 31.4981 58.6342 32.0063C58.8449 32.5146 58.9534 33.0594 58.9534 33.6096C58.9534 34.1598 58.8449 34.7046 58.6342 35.2129C58.4235 35.7211 58.1148 36.1828 57.7255 36.5716C57.3367 36.9609 56.875 37.2696 56.3668 37.4803C55.8585 37.691 55.3137 37.7995 54.7635 37.7995C54.2133 37.7995 53.6684 37.691 53.1602 37.4803C52.652 37.2696 52.1902 36.9609 51.8014 36.5716C51.8014 36.5716 51.8015 36.5717 51.8014 36.5716L51.6887 36.4589C51.6882 36.4584 51.6877 36.458 51.6873 36.4575C51.2826 36.0622 50.7689 35.797 50.2122 35.6961C49.655 35.595 49.0802 35.6633 48.562 35.8919L48.5587 35.8934C48.0506 36.1112 47.6172 36.4728 47.312 36.9337C47.0069 37.3944 46.8431 37.9343 46.8407 38.4869C46.8407 38.4871 46.8407 38.4873 46.8407 38.4875L46.8407 38.8132C46.8407 39.9236 46.3996 40.9885 45.6144 41.7737C44.8292 42.5589 43.7643 43 42.6539 43C41.5435 43 40.4785 42.5589 39.6933 41.7737C38.9082 40.9885 38.4671 39.9236 38.4671 38.8132V38.6441C38.453 38.0768 38.269 37.5268 37.9389 37.0652C37.608 36.6026 37.1456 36.2502 36.6118 36.0539C36.6082 36.0525 36.6046 36.0512 36.601 36.0497C36.5979 36.0485 36.5949 36.0472 36.5919 36.0458C36.0737 35.8172 35.4989 35.7489 34.9416 35.85C34.385 35.9509 33.8712 36.2161 33.4665 36.6115C33.4661 36.6119 33.4657 36.6123 33.4652 36.6128L33.3526 36.7254C32.9638 37.1147 32.502 37.4235 31.9937 37.6342C31.4854 37.8449 30.9406 37.9534 30.3904 37.9534C29.8402 37.9534 29.2954 37.8449 28.7871 37.6342C28.2788 37.4235 27.8171 37.1147 27.4282 36.7254C27.0391 36.3366 26.7303 35.875 26.5197 35.3668C26.309 34.8585 26.2005 34.3137 26.2005 33.7635C26.2005 33.2133 26.309 32.6685 26.5197 32.1602C26.7304 31.652 27.0391 31.1902 27.4284 30.8014C27.4284 30.8014 27.4283 30.8015 27.4284 30.8014L27.5411 30.6887C27.5416 30.6882 27.542 30.6878 27.5424 30.6874C27.9378 30.2827 28.203 29.7689 28.3039 29.2122C28.405 28.655 28.3367 28.0802 28.1081 27.562L28.1066 27.5587C27.8888 27.0506 27.5272 26.6172 27.0663 26.312C26.6056 26.0069 26.0657 25.8431 25.5131 25.8407C25.5129 25.8407 25.5127 25.8407 25.5125 25.8407L25.1868 25.8407C24.0764 25.8407 23.0115 25.3996 22.2263 24.6144C21.4411 23.8293 21 22.7643 21 21.6539C21 20.5435 21.4411 19.4785 22.2263 18.6933C23.0115 17.9082 24.0764 17.4671 25.1868 17.4671H25.3559C25.9232 17.453 26.4732 17.269 26.9348 16.9389C27.3974 16.608 27.7498 16.1456 27.9461 15.6118C27.9486 15.6051 27.9513 15.5984 27.9542 15.5919C28.1828 15.0737 28.2511 14.4989 28.15 13.9416C28.0491 13.3849 27.7839 12.8712 27.3885 12.4665L27.2746 12.3526C26.8853 11.9638 26.5765 11.502 26.3658 10.9937C26.1551 10.4854 26.0466 9.94062 26.0466 9.39041C26.0466 8.84019 26.1551 8.29537 26.3658 7.7871C26.5765 7.27882 26.8853 6.81706 27.2746 6.42822C27.6634 6.03907 28.125 5.73034 28.6332 5.51969C29.1415 5.30899 29.6863 5.20054 30.2365 5.20054C30.7867 5.20054 31.3315 5.30899 31.8398 5.51969C32.348 5.73036 32.8098 6.03913 33.1986 6.42835C33.1986 6.42839 33.1985 6.42831 33.1986 6.42835L33.3127 6.54243C33.7173 6.93777 34.2311 7.20298 34.7877 7.30391C35.345 7.40496 35.9198 7.33674 36.438 7.10806C36.4812 7.089 36.5279 7.07916 36.5751 7.07916H36.6572C37.1386 6.85908 37.5492 6.50838 37.8419 6.06633C38.147 5.6056 38.3108 5.06574 38.3132 4.51315V4.18684C38.3132 3.07642 38.7543 2.01148 39.5395 1.2263Z" fill="black"/>
</svg>
